X:30
T:Trip to the Cottage. AJH.030
M:6/8
L:1/8
Q:3/8=120
S:A.J.Hughes MS
N:MS gives 2 lines with D.C. at end.
N:I therefore have put in the extra A music line.
O:England
A:North Shropshire
Z:Neil Brookes 2006
K:G
B/2c/2|dBB BGG|cAA AFD|DGG FAA|GBB A2 B/2c/2|
dBB BGG|cAA AFD|DGG FAA|BGGG2:|
d|gfe d2B|edc Bcd|ecA ecG|FAG FED|
gfe d2B|edc Bcd|efg fdf|edc d2||!
B/2c/2|dBB BGG|cAA AFD|DGG FAA|GBB A2 B/2c/2|
dBB BGG|cAA AFD|DGG FAA|BGGG2|]

